X:343
T:Reel 343
M:4/4
K:Bmin
L:1/8
FE|:DB,B,C DB,B,C|D2CD EGFE|DB,B,A, CA,A,C|DB,CA, B,2:|F,^G,|A,2AG FGAF|ECAC B,A,F,E|DCDE FGAF|ECA,C B,2|
